X: 19984
T: Jim Hodder's
R: reel
M: 4/4
K: Edorian
E2B,E G2EG|B2GB d2Bc|dedB AFDF|GEFD EDB,2|
E2B,E G2EG|B2GB d2Bc|dedB AFDF|GEFD E4:|
|:[M:6/4] e3f gfeg f~B3|e3f gfe2 b2b2|e3f gfeg fBBc|dedB AFDF E2E2:|

